!!!!SEGMENT: pl-sa--552-a-ix-32--010_anonim--anglaise.krn
!!!cenid: 18xx:521
!!!COM: Anonim
!!!COM-rismID: pe30004985
!!!CDT:
!!!CNT:
!!!OTL: Anglaise
!!!PDT:
!!!AGN: Secular; Anglaise
!!!SMS-siglum: PL-SA
!!!SMS-shelfmark: 552/A IX 32
!!!SMS-shelfwork: 010 W
!!!SMS-variant:
!!!SMS-altvar:
!!!NIFC-rismSourceID: 1001069502
!!!NIFC-islandoraID:
!!!URL-pdf-islandora:
!!!URL-scan: https://bc.bdsandomierz.pl/dlibra/publication/1308/edition/1276/content @EN{Scan in the Sandomierz Diocese Digital Library} @PL{Skany w portalu Cyfrowa Biblioteka Diecezjalna w Sandomierzu}
!!!ONB-nifc: Str. 7, s. 1
!!!AIN: 1 empty
!!!key:
**kern	**kern
*part1	*part1
*staff2	*staff1
*Iempty	*Ipiano
*	*I"Piano
*clefF4	*clefG2
*k[]	*k[]
*C:	*C:
*M2/4	*M2/4
*>[A,A,B,B]	*>[A,A,B,B]
=1	=1
*>A	*>A
!	!LO:TX:a:Bi:t=Anglaise:rj
!LO:TX:a:t=P:problem=mixed beam	!
8CC/L	8eeL 8cc\
8C\	8ff 8dd\
8C\	8gg 8ee\
8C\J	8aaJ 8ff\
=2	=2
*rep	*
!LO:TX:a:t=P:problem=mixed beam	!
8CC/L	4.gg 4.ee\
8C\	.
8C\	.
8C\J	8ee 8cc\
*Xrep	*
=3	=3
8BBL 8GG\	8ddL 8b\
8G\J	8gg\
*rep	*
8BBL 8GG\	8dd 8b\
8G\J	8gg\J
*Xrep	*
=4	=4
!LO:TX:a:t=P:problem=mixed beam	!
8CC/L	16ee\LL
.	16ff\
8C\J	16ee\
.	16dd\JJ
!LO:TX:a:t=P:problem=mixed beam	!
8CC/L	8cc\L
8C\J	8cc\J
=5	=5
8CC/L	8eeL 8cc\
8C/	8ff 8dd\
8C/	8gg 8ee\
8C/J	8aaJ 8ff\
=6	=6
*rep	*
8CC\L	4.gg 4.ee\
8C/	.
8C/	.
8C/J	8ee 8cc\
*Xrep	*
=7	=7
!LO:TX:a:t=P:problem=mixed beam	!
8GG/L	8ddL 8b\
8G\	8gg\J
8GG/	8ddL 8b\
8G\J	8gg\J
=8	=8
8C/L	4cc\
8GG/J	.
!	!LO:TX:a:t=P:problem=w źródle brak pauzy
4CC/	4ryy
=9:|!|:	=9:|!|:
*>B	*>B
8BBL 8GG\	8ddL 8b\
8D\J	8gg\J
*rep	*rep
8BBL 8GG\	8ddL 8b\
8D\J	8gg\J
*Xrep	*Xrep
=10	=10
8CL 8GG\	16ee\LL
.	16ff\
8E\J	16ee\
.	16dd\JJ
*rep	*
8CL 8GG\	8cc\L
8E\J	8cc\J
*Xrep	*
=11	=11
8BBL 8GG\	8ddL 8b\
8D\J	8gg\J
*rep	*rep
8BBL 8GG\	8ddL 8b\
8D\J	8gg\J
*Xrep	*Xrep
=12	=12
8CC/L	8eeL 8cc\
8C/	8ff 8dd\
8C/	8gg 8ee\
8C/J	8aaJ 8ff\
=13	=13
*rep	*
8CC\L	4.gg 4.ee\
8C/	.
8C/	.
8C/J	8ee 8cc\
*Xrep	*
=14	=14
8BBL 8GG\	8ddL 8b\
8D\J	8gg\J
*rep	*rep
8BBL 8GG\	8ddL 8b\
8D\J	8gg\J
*Xrep	*Xrep
=15	=15
8C/L	4cc\
8GG/J	.
4CC/	4r
!	!LO:TX:a:t=P:problem=w źródle brak kreski końcowej
!	!LO:TX:b:Bi:t=Fin
==	==
*-	*-
!!!system-decoration: {(s1,s2)}
!!!RDF**kern: > = above
!!!RDF**kern: < = below
!!!EED: Wojciech Jakubiak-Danek
!!!EEV: 2020-12-12
!!!ENC: Anastazja Marusiak
!!!END: 2020-06-17
!!!YEC: Copyright 2022 Narodowy Instytut Fryderyka Chopina (https://polishscores.org)
!!!YEM: Licence CC BY 4.0 (https://creativecommons.org/licenses/by/4.0)
